X:59
T:Admiral Boscawen. ThoH.059
Q:1/4=100
M:C|
L:1/8
B:Thompson's Compleat Collection of 120 Favourite Hornpipes.
Z:Village Music Project, Simon Wilson 2016
O:England.
K:Bb
BdfeTd3e|cdBc{B}A3G|FGEF DFB2|Aced{d}Tc4|
BdfeTd3e|cdBc{B}A3G|FGEF DFBD|C2A2B4:|
|:Bdfab3a|gafg{f}T=e3d|cdBc Acfb|agf=e f_edc|
BdfeTd3e|cdBc{B}TA3G|FGEF DFBe|d2c2B4:|

